report_00007_2020-12-11T15:55:29.892Z/network-server-latency/comparison/sorted/7_vs_8.svg

<svg width="640" height="500" xmlns="http://www.w3.org/2000/svg" xmlns:xlink="http://www.w3.org/1999/xlink"><path fill="#fff" d="M0 0h640v500H0z"/><defs><path id="d" stroke-width=".222" stroke="currentColor" d="M-1-1h2v2h-2z"/><path id="b" stroke-width=".222" stroke="currentColor" d="M0-1.33l-1.33 2h2.66z"/><path id="f" stroke-width=".222" stroke="currentColor" d="M0 1.33L1.265.411.782-1.067l-1.564-.009-.483 1.487z"/><use xlink:href="#b" id="c" stroke="currentColor" transform="rotate(180)"/><use xlink:href="#d" id="e" stroke="currentColor" transform="rotate(45)"/><circle id="a" stroke-width=".222" stroke="currentColor" cx="0" cy="0" r="1"/></defs><g fill="none" color="#000" stroke="currentColor"><path stroke="#000" d="M53.9 436.3h9m552.1 0h-9"/><text transform="translate(45.6 440.2)" stroke="none" fill="#000" font-family="Arial" font-size="12" text-anchor="end"><tspan>3.5</tspan></text></g><g fill="none" color="#000" stroke="currentColor"><path stroke="#000" d="M53.9 391.6h9m552.1 0h-9"/><text transform="translate(45.6 395.5)" stroke="none" fill="#000" font-family="Arial" font-size="12" text-anchor="end"><tspan>4</tspan></text></g><g fill="none" color="#000" stroke="currentColor"><path stroke="#000" d="M53.9 346.9h9m552.1 0h-9"/><text transform="translate(45.6 350.8)" stroke="none" fill="#000" font-family="Arial" font-size="12" text-anchor="end"><tspan>4.5</tspan></text></g><g fill="none" color="#000" stroke="currentColor"><path stroke="#000" d="M53.9 302.2h9m552.1 0h-9"/><text transform="translate(45.6 306.1)" stroke="none" fill="#000" font-family="Arial" font-size="12" text-anchor="end"><tspan>5</tspan></text></g><g fill="none" color="#000" stroke="currentColor"><path stroke="#000" d="M53.9 257.6h9m552.1 0h-9"/><text transform="translate(45.6 261.5)" stroke="none" fill="#000" font-family="Arial" font-size="12" text-anchor="end"><tspan>5.5</tspan></text></g><g fill="none" color="#000" stroke="currentColor"><path stroke="#000" d="M53.9 212.9h9m552.1 0h-9"/><text transform="translate(45.6 216.8)" stroke="none" fill="#000" font-family="Arial" font-size="12" text-anchor="end"><tspan>6</tspan></text></g><g fill="none" color="#000" stroke="currentColor"><path stroke="#000" d="M53.9 168.2h9m552.1 0h-9"/><text transform="translate(45.6 172.1)" stroke="none" fill="#000" font-family="Arial" font-size="12" text-anchor="end"><tspan>6.5</tspan></text></g><g fill="none" color="#000" stroke="currentColor"><path stroke="#000" d="M53.9 123.5h9m552.1 0h-9"/><text transform="translate(45.6 127.4)" stroke="none" fill="#000" font-family="Arial" font-size="12" text-anchor="end"><tspan>7</tspan></text></g><g fill="none" color="#000" stroke="currentColor"><path stroke="#000" d="M53.9 78.9h9m552.1 0h-9"/><text transform="translate(45.6 82.8)" stroke="none" fill="#000" font-family="Arial" font-size="12" text-anchor="end"><tspan>7.5</tspan></text></g><g fill="none" color="#000" stroke="currentColor"><path stroke="#000" d="M53.9 34.2h9m552.1 0h-9"/><text transform="translate(45.6 38.1)" stroke="none" fill="#000" font-family="Arial" font-size="12" text-anchor="end"><tspan>8</tspan></text></g><g fill="none" color="#000" stroke="currentColor"><path stroke="#000" d="M53.9 446v-9m0-418.9v9"/><text transform="translate(53.9 467.9)" stroke="none" fill="#000" font-family="Arial" font-size="12" text-anchor="middle"><tspan>0</tspan></text></g><g fill="none" color="#000" stroke="currentColor"><path stroke="#000" d="M110.6 446v-9m0-418.9v9"/><text transform="translate(110.6 467.9)" stroke="none" fill="#000" font-family="Arial" font-size="12" text-anchor="middle"><tspan>10</tspan></text></g><g fill="none" color="#000" stroke="currentColor"><path stroke="#000" d="M167.3 446v-9m0-418.9v9"/><text transform="translate(167.3 467.9)" stroke="none" fill="#000" font-family="Arial" font-size="12" text-anchor="middle"><tspan>20</tspan></text></g><g fill="none" color="#000" stroke="currentColor"><path stroke="#000" d="M223.9 446v-9m0-418.9v9"/><text transform="translate(223.9 467.9)" stroke="none" fill="#000" font-family="Arial" font-size="12" text-anchor="middle"><tspan>30</tspan></text></g><g fill="none" color="#000" stroke="currentColor"><path stroke="#000" d="M280.6 446v-9m0-418.9v9"/><text transform="translate(280.6 467.9)" stroke="none" fill="#000" font-family="Arial" font-size="12" text-anchor="middle"><tspan>40</tspan></text></g><g fill="none" color="#000" stroke="currentColor"><path stroke="#000" d="M337.3 446v-9m0-418.9v9"/><text transform="translate(337.3 467.9)" stroke="none" fill="#000" font-family="Arial" font-size="12" text-anchor="middle"><tspan>50</tspan></text></g><g fill="none" color="#000" stroke="currentColor"><path stroke="#000" d="M394 446v-9m0-418.9v9"/><text transform="translate(394 467.9)" stroke="none" fill="#000" font-family="Arial" font-size="12" text-anchor="middle"><tspan>60</tspan></text></g><g fill="none" color="#000" stroke="currentColor"><path stroke="#000" d="M450.6 446v-9m0-418.9v9"/><text transform="translate(450.6 467.9)" stroke="none" fill="#000" font-family="Arial" font-size="12" text-anchor="middle"><tspan>70</tspan></text></g><g fill="none" color="#000" stroke="currentColor"><path stroke="#000" d="M507.3 446v-9m0-418.9v9"/><text transform="translate(507.3 467.9)" stroke="none" fill="#000" font-family="Arial" font-size="12" text-anchor="middle"><tspan>80</tspan></text></g><g fill="none" color="#000" stroke="currentColor"><path stroke="#000" d="M564 446v-9m0-418.9v9"/><text transform="translate(564 467.9)" stroke="none" fill="#000" font-family="Arial" font-size="12" text-anchor="middle"><tspan>90</tspan></text></g><path stroke="#000" d="M53.9 18.1V446H615V18.1H53.9z" fill="none" color="#000"/><text transform="translate(275.6 485.9)" stroke="none" fill="#000" font-family="Arial" font-size="12" text-anchor="end" color="#000"><tspan>pages+cached+noexternal+nosvg</tspan></text><path stroke="#9400D3" d="M283.9 482h42.2M53.9 395l5.7-55.8 5.6-16 5.7-1.2 5.7-.7 5.6-3 5.7-11.6 5.7-4.4 5.6-1.2 5.7-1.9 5.7-.4 5.6-8.4 5.7-3.7 5.7-2.4 5.6-5.3 5.7-2 5.7-1.6 5.7-6.1 5.6-.7h5.7l5.7-.8 5.6-4.7 5.7-4.1 5.7-1.3 5.6-1.8 5.7-.4 5.7-.4 5.6-1.3 5.7-.5 5.7-2.1 5.6-.6 5.7-.6 5.7-2.1 5.6-.3 5.7-.1 5.7-3h5.6l5.7-5.5 5.7-.1 5.6-.9 5.7-1.2 5.7-1.8 5.6-1.9 5.7-1.4 5.7-1.5 5.6-1.2 5.7-.1 5.7-2.6 5.6-1.9 5.7-.7 5.7-1.8 5.7-.4 5.6-.2 5.7-2.3 5.7-.4 5.6-5h5.7l5.7-.9 5.6-.1 5.7-.2 5.7-.3 5.6-4 5.7-3.3 5.7-1.3 5.6-.7 5.7-2.5 5.7-2.5 5.6-.2 5.7-2 5.7-1.7 5.6-3.7 5.7-1 5.7-1.1 5.6-.4 5.7-1.6 5.7-11.3h5.6l5.7-.2 5.7-.3 5.6-1.2 5.7-1.7 5.7-2.1 5.6-4.2 5.7-2 5.7-2.2 5.7-2.8 5.6-8.6 5.7-8.5 5.7-4.5 5.6-6 5.7-11.6 5.7-2.7 5.6-6.6 5.7-3.7 5.7-5.8 5.6-3.2 5.7-22.7 5.7-9.6 5.6-.7 5.7-37.6" fill="none" color="#000"/><text transform="translate(575.1 485.9)" stroke="none" fill="#000" font-family="Arial" font-size="12" text-anchor="end" color="#000"><tspan>pages+cached+noexternal+noimg</tspan></text><path stroke="#009E73" d="M583.4 482h42.2M53.9 437.8l5.7-6.2 5.6-15.6 5.7-2.2 5.7-7.9 5.6-7.3 5.7-.8 5.7-5.6 5.6-4.9 5.7-1.9 5.7-1.3 5.6-.2 5.7-.1 5.7-1.1 5.6-1.4 5.7-.1 5.7-2.1 5.7-4.9h5.6l5.7-.6 5.7-2.1 5.6-.8 5.7-1 5.7-.2 5.6-.5 5.7-.3 5.7-.4 5.6-.6h5.7l5.7-6.6 5.6-.2 5.7-1.1 5.7-.8 5.6-.3 5.7-.4 5.7-1.1 5.6-.3 5.7-.3 5.7-.1 5.6-1 5.7-.3 5.7-.3 5.6-.8 5.7-2.3 5.7-2.3 5.6-.4 5.7-.1 5.7-.5 5.6-.3h5.7l5.7-.2 5.7-.1 5.6-.2 5.7-.3h5.7l5.6-.3 5.7-1 5.7-.4 5.6-.5 5.7-1 5.7-.9 5.6-1.3 5.7-2.2 5.7-.3 5.6-.4 5.7-.1 5.7-.2 5.6-3.4 5.7-3.6 5.7-.5 5.6-1.4h5.7l5.7-.2 5.6-.3 5.7-.3 5.7-.8 5.6-.3 5.7-.5 5.7-1 5.6-2.7 5.7-6.4 5.7-1 5.6-.2 5.7-3.8 5.7-4.3 5.7-.4 5.6-2.6 5.7-2.7 5.7-3.6 5.6-5.8 5.7-.7 5.7-.6 5.6-.9 5.7-1.2 5.7-7.7 5.6-5.5 5.7-3 5.7-2.3 5.6-23.6 5.7-56.1" fill="none" color="#000"/><g fill="none" color="#000" stroke="currentColor"><path stroke="#000" d="M53.9 18.1V446H615V18.1H53.9z"/></g></svg>

<?xml version="1.0" encoding="utf-8"  standalone="no"?>
<svg 
 width="640" height="500"
 viewBox="0 0 640 500"
 xmlns="http://www.w3.org/2000/svg"
 xmlns:xlink="http://www.w3.org/1999/xlink"
>

<title>Gnuplot</title>
<desc>Produced by GNUPLOT 5.4 patchlevel 0 </desc>

<g id="gnuplot_canvas">

<rect x="0" y="0" width="640" height="500" fill="#ffffff"/>
<defs>

	<circle id='gpDot' r='0.5' stroke-width='0.5' stroke='currentColor'/>
	<path id='gpPt0' stroke-width='0.222' stroke='currentColor' d='M-1,0 h2 M0,-1 v2'/>
	<path id='gpPt1' stroke-width='0.222' stroke='currentColor' d='M-1,-1 L1,1 M1,-1 L-1,1'/>
	<path id='gpPt2' stroke-width='0.222' stroke='currentColor' d='M-1,0 L1,0 M0,-1 L0,1 M-1,-1 L1,1 M-1,1 L1,-1'/>
	<rect id='gpPt3' stroke-width='0.222' stroke='currentColor' x='-1' y='-1' width='2' height='2'/>
	<rect id='gpPt4' stroke-width='0.222' stroke='currentColor' fill='currentColor' x='-1' y='-1' width='2' height='2'/>
	<circle id='gpPt5' stroke-width='0.222' stroke='currentColor' cx='0' cy='0' r='1'/>
	<use xlink:href='#gpPt5' id='gpPt6' fill='currentColor' stroke='none'/>
	<path id='gpPt7' stroke-width='0.222' stroke='currentColor' d='M0,-1.33 L-1.33,0.67 L1.33,0.67 z'/>
	<use xlink:href='#gpPt7' id='gpPt8' fill='currentColor' stroke='none'/>
	<use xlink:href='#gpPt7' id='gpPt9' stroke='currentColor' transform='rotate(180)'/>
	<use xlink:href='#gpPt9' id='gpPt10' fill='currentColor' stroke='none'/>
	<use xlink:href='#gpPt3' id='gpPt11' stroke='currentColor' transform='rotate(45)'/>
	<use xlink:href='#gpPt11' id='gpPt12' fill='currentColor' stroke='none'/>
	<path id='gpPt13' stroke-width='0.222' stroke='currentColor' d='M0,1.330 L1.265,0.411 L0.782,-1.067 L-0.782,-1.076 L-1.265,0.411 z'/>
	<use xlink:href='#gpPt13' id='gpPt14' fill='currentColor' stroke='none'/>
	<filter id='textbox' filterUnits='objectBoundingBox' x='0' y='0' height='1' width='1'>
	  <feFlood flood-color='#FFFFFF' flood-opacity='1' result='bgnd'/>
	  <feComposite in='SourceGraphic' in2='bgnd' operator='atop'/>
	</filter>
	<filter id='greybox' filterUnits='objectBoundingBox' x='0' y='0' height='1' width='1'>
	  <feFlood flood-color='lightgrey' flood-opacity='1' result='grey'/>
	  <feComposite in='SourceGraphic' in2='grey' operator='atop'/>
	</filter>
</defs>
<g fill="none" color="#FFFFFF" stroke="black" stroke-width="1.00" stroke-linecap="butt" stroke-linejoin="miter">
</g>
<g fill="none" color="black" stroke="currentColor" stroke-width="1.00" stroke-linecap="butt" stroke-linejoin="miter">
	<path stroke='black'  d='M53.9,436.3 L62.9,436.3 M615.0,436.3 L606.0,436.3  '/>	<g transform="translate(45.6,440.2)" stroke="none" fill="black" font-family="Arial" font-size="12.00"  text-anchor="end">
		<text><tspan font-family="Arial" > 3.5</tspan></text>
	</g>
</g>
<g fill="none" color="black" stroke="currentColor" stroke-width="1.00" stroke-linecap="butt" stroke-linejoin="miter">
	<path stroke='black'  d='M53.9,391.6 L62.9,391.6 M615.0,391.6 L606.0,391.6  '/>	<g transform="translate(45.6,395.5)" stroke="none" fill="black" font-family="Arial" font-size="12.00"  text-anchor="end">
		<text><tspan font-family="Arial" > 4</tspan></text>
	</g>
</g>
<g fill="none" color="black" stroke="currentColor" stroke-width="1.00" stroke-linecap="butt" stroke-linejoin="miter">
	<path stroke='black'  d='M53.9,346.9 L62.9,346.9 M615.0,346.9 L606.0,346.9  '/>	<g transform="translate(45.6,350.8)" stroke="none" fill="black" font-family="Arial" font-size="12.00"  text-anchor="end">
		<text><tspan font-family="Arial" > 4.5</tspan></text>
	</g>
</g>
<g fill="none" color="black" stroke="currentColor" stroke-width="1.00" stroke-linecap="butt" stroke-linejoin="miter">
	<path stroke='black'  d='M53.9,302.2 L62.9,302.2 M615.0,302.2 L606.0,302.2  '/>	<g transform="translate(45.6,306.1)" stroke="none" fill="black" font-family="Arial" font-size="12.00"  text-anchor="end">
		<text><tspan font-family="Arial" > 5</tspan></text>
	</g>
</g>
<g fill="none" color="black" stroke="currentColor" stroke-width="1.00" stroke-linecap="butt" stroke-linejoin="miter">
	<path stroke='black'  d='M53.9,257.6 L62.9,257.6 M615.0,257.6 L606.0,257.6  '/>	<g transform="translate(45.6,261.5)" stroke="none" fill="black" font-family="Arial" font-size="12.00"  text-anchor="end">
		<text><tspan font-family="Arial" > 5.5</tspan></text>
	</g>
</g>
<g fill="none" color="black" stroke="currentColor" stroke-width="1.00" stroke-linecap="butt" stroke-linejoin="miter">
	<path stroke='black'  d='M53.9,212.9 L62.9,212.9 M615.0,212.9 L606.0,212.9  '/>	<g transform="translate(45.6,216.8)" stroke="none" fill="black" font-family="Arial" font-size="12.00"  text-anchor="end">
		<text><tspan font-family="Arial" > 6</tspan></text>
	</g>
</g>
<g fill="none" color="black" stroke="currentColor" stroke-width="1.00" stroke-linecap="butt" stroke-linejoin="miter">
	<path stroke='black'  d='M53.9,168.2 L62.9,168.2 M615.0,168.2 L606.0,168.2  '/>	<g transform="translate(45.6,172.1)" stroke="none" fill="black" font-family="Arial" font-size="12.00"  text-anchor="end">
		<text><tspan font-family="Arial" > 6.5</tspan></text>
	</g>
</g>
<g fill="none" color="black" stroke="currentColor" stroke-width="1.00" stroke-linecap="butt" stroke-linejoin="miter">
	<path stroke='black'  d='M53.9,123.5 L62.9,123.5 M615.0,123.5 L606.0,123.5  '/>	<g transform="translate(45.6,127.4)" stroke="none" fill="black" font-family="Arial" font-size="12.00"  text-anchor="end">
		<text><tspan font-family="Arial" > 7</tspan></text>
	</g>
</g>
<g fill="none" color="black" stroke="currentColor" stroke-width="1.00" stroke-linecap="butt" stroke-linejoin="miter">
	<path stroke='black'  d='M53.9,78.9 L62.9,78.9 M615.0,78.9 L606.0,78.9  '/>	<g transform="translate(45.6,82.8)" stroke="none" fill="black" font-family="Arial" font-size="12.00"  text-anchor="end">
		<text><tspan font-family="Arial" > 7.5</tspan></text>
	</g>
</g>
<g fill="none" color="black" stroke="currentColor" stroke-width="1.00" stroke-linecap="butt" stroke-linejoin="miter">
	<path stroke='black'  d='M53.9,34.2 L62.9,34.2 M615.0,34.2 L606.0,34.2  '/>	<g transform="translate(45.6,38.1)" stroke="none" fill="black" font-family="Arial" font-size="12.00"  text-anchor="end">
		<text><tspan font-family="Arial" > 8</tspan></text>
	</g>
</g>
<g fill="none" color="black" stroke="currentColor" stroke-width="1.00" stroke-linecap="butt" stroke-linejoin="miter">
	<path stroke='black'  d='M53.9,446.0 L53.9,437.0 M53.9,18.1 L53.9,27.1  '/>	<g transform="translate(53.9,467.9)" stroke="none" fill="black" font-family="Arial" font-size="12.00"  text-anchor="middle">
		<text><tspan font-family="Arial" > 0</tspan></text>
	</g>
</g>
<g fill="none" color="black" stroke="currentColor" stroke-width="1.00" stroke-linecap="butt" stroke-linejoin="miter">
	<path stroke='black'  d='M110.6,446.0 L110.6,437.0 M110.6,18.1 L110.6,27.1  '/>	<g transform="translate(110.6,467.9)" stroke="none" fill="black" font-family="Arial" font-size="12.00"  text-anchor="middle">
		<text><tspan font-family="Arial" > 10</tspan></text>
	</g>
</g>
<g fill="none" color="black" stroke="currentColor" stroke-width="1.00" stroke-linecap="butt" stroke-linejoin="miter">
	<path stroke='black'  d='M167.3,446.0 L167.3,437.0 M167.3,18.1 L167.3,27.1  '/>	<g transform="translate(167.3,467.9)" stroke="none" fill="black" font-family="Arial" font-size="12.00"  text-anchor="middle">
		<text><tspan font-family="Arial" > 20</tspan></text>
	</g>
</g>
<g fill="none" color="black" stroke="currentColor" stroke-width="1.00" stroke-linecap="butt" stroke-linejoin="miter">
	<path stroke='black'  d='M223.9,446.0 L223.9,437.0 M223.9,18.1 L223.9,27.1  '/>	<g transform="translate(223.9,467.9)" stroke="none" fill="black" font-family="Arial" font-size="12.00"  text-anchor="middle">
		<text><tspan font-family="Arial" > 30</tspan></text>
	</g>
</g>
<g fill="none" color="black" stroke="currentColor" stroke-width="1.00" stroke-linecap="butt" stroke-linejoin="miter">
	<path stroke='black'  d='M280.6,446.0 L280.6,437.0 M280.6,18.1 L280.6,27.1  '/>	<g transform="translate(280.6,467.9)" stroke="none" fill="black" font-family="Arial" font-size="12.00"  text-anchor="middle">
		<text><tspan font-family="Arial" > 40</tspan></text>
	</g>
</g>
<g fill="none" color="black" stroke="currentColor" stroke-width="1.00" stroke-linecap="butt" stroke-linejoin="miter">
	<path stroke='black'  d='M337.3,446.0 L337.3,437.0 M337.3,18.1 L337.3,27.1  '/>	<g transform="translate(337.3,467.9)" stroke="none" fill="black" font-family="Arial" font-size="12.00"  text-anchor="middle">
		<text><tspan font-family="Arial" > 50</tspan></text>
	</g>
</g>
<g fill="none" color="black" stroke="currentColor" stroke-width="1.00" stroke-linecap="butt" stroke-linejoin="miter">
	<path stroke='black'  d='M394.0,446.0 L394.0,437.0 M394.0,18.1 L394.0,27.1  '/>	<g transform="translate(394.0,467.9)" stroke="none" fill="black" font-family="Arial" font-size="12.00"  text-anchor="middle">
		<text><tspan font-family="Arial" > 60</tspan></text>
	</g>
</g>
<g fill="none" color="black" stroke="currentColor" stroke-width="1.00" stroke-linecap="butt" stroke-linejoin="miter">
	<path stroke='black'  d='M450.6,446.0 L450.6,437.0 M450.6,18.1 L450.6,27.1  '/>	<g transform="translate(450.6,467.9)" stroke="none" fill="black" font-family="Arial" font-size="12.00"  text-anchor="middle">
		<text><tspan font-family="Arial" > 70</tspan></text>
	</g>
</g>
<g fill="none" color="black" stroke="currentColor" stroke-width="1.00" stroke-linecap="butt" stroke-linejoin="miter">
	<path stroke='black'  d='M507.3,446.0 L507.3,437.0 M507.3,18.1 L507.3,27.1  '/>	<g transform="translate(507.3,467.9)" stroke="none" fill="black" font-family="Arial" font-size="12.00"  text-anchor="middle">
		<text><tspan font-family="Arial" > 80</tspan></text>
	</g>
</g>
<g fill="none" color="black" stroke="currentColor" stroke-width="1.00" stroke-linecap="butt" stroke-linejoin="miter">
	<path stroke='black'  d='M564.0,446.0 L564.0,437.0 M564.0,18.1 L564.0,27.1  '/>	<g transform="translate(564.0,467.9)" stroke="none" fill="black" font-family="Arial" font-size="12.00"  text-anchor="middle">
		<text><tspan font-family="Arial" > 90</tspan></text>
	</g>
</g>
<g fill="none" color="black" stroke="currentColor" stroke-width="1.00" stroke-linecap="butt" stroke-linejoin="miter">
</g>
<g fill="none" color="black" stroke="currentColor" stroke-width="1.00" stroke-linecap="butt" stroke-linejoin="miter">
	<path stroke='black'  d='M53.9,18.1 L53.9,446.0 L615.0,446.0 L615.0,18.1 L53.9,18.1 Z  '/></g>
<g fill="none" color="black" stroke="currentColor" stroke-width="1.00" stroke-linecap="butt" stroke-linejoin="miter">
</g>
	<g id="gnuplot_plot_1" ><title>pages+cached+noexternal+nosvg</title>
<g fill="none" color="black" stroke="currentColor" stroke-width="1.00" stroke-linecap="butt" stroke-linejoin="miter">
	<g transform="translate(275.6,485.9)" stroke="none" fill="black" font-family="Arial" font-size="12.00"  text-anchor="end">
		<text><tspan font-family="Arial" >pages+cached+noexternal+nosvg</tspan></text>
	</g>
</g>
<g fill="none" color="black" stroke="currentColor" stroke-width="1.00" stroke-linecap="butt" stroke-linejoin="miter">
	<path stroke='rgb(148,   0, 211)'  d='M283.9,482.0 L326.1,482.0 M53.9,395.0 L59.6,339.2 L65.2,323.2 L70.9,322.0 L76.6,321.3 L82.2,318.3
		L87.9,306.7 L93.6,302.3 L99.2,301.1 L104.9,299.2 L110.6,298.8 L116.2,290.4 L121.9,286.7 L127.6,284.3
		L133.2,279.0 L138.9,277.0 L144.6,275.4 L150.3,269.3 L155.9,268.6 L161.6,268.6 L167.3,267.8 L172.9,263.1
		L178.6,259.0 L184.3,257.7 L189.9,255.9 L195.6,255.5 L201.3,255.1 L206.9,253.8 L212.6,253.3 L218.3,251.2
		L223.9,250.6 L229.6,250.0 L235.3,247.9 L240.9,247.6 L246.6,247.5 L252.3,244.5 L257.9,244.5 L263.6,239.0
		L269.3,238.9 L274.9,238.0 L280.6,236.8 L286.3,235.0 L291.9,233.1 L297.6,231.7 L303.3,230.2 L308.9,229.0
		L314.6,228.9 L320.3,226.3 L325.9,224.4 L331.6,223.7 L337.3,221.9 L343.0,221.5 L348.6,221.3 L354.3,219.0
		L360.0,218.6 L365.6,213.6 L371.3,213.6 L377.0,212.7 L382.6,212.6 L388.3,212.4 L394.0,212.1 L399.6,208.1
		L405.3,204.8 L411.0,203.5 L416.6,202.8 L422.3,200.3 L428.0,197.8 L433.6,197.6 L439.3,195.6 L445.0,193.9
		L450.6,190.2 L456.3,189.2 L462.0,188.1 L467.6,187.7 L473.3,186.1 L479.0,174.8 L484.6,174.8 L490.3,174.6
		L496.0,174.3 L501.6,173.1 L507.3,171.4 L513.0,169.3 L518.6,165.1 L524.3,163.1 L530.0,160.9 L535.7,158.1
		L541.3,149.5 L547.0,141.0 L552.7,136.5 L558.3,130.5 L564.0,118.9 L569.7,116.2 L575.3,109.6 L581.0,105.9
		L586.7,100.1 L592.3,96.9 L598.0,74.2 L603.7,64.6 L609.3,63.9 L615.0,26.3  '/></g>
	</g>
	<g id="gnuplot_plot_2" ><title>pages+cached+noexternal+noimg</title>
<g fill="none" color="black" stroke="currentColor" stroke-width="1.00" stroke-linecap="butt" stroke-linejoin="miter">
	<g transform="translate(575.1,485.9)" stroke="none" fill="black" font-family="Arial" font-size="12.00"  text-anchor="end">
		<text><tspan font-family="Arial" >pages+cached+noexternal+noimg</tspan></text>
	</g>
</g>
<g fill="none" color="black" stroke="currentColor" stroke-width="1.00" stroke-linecap="butt" stroke-linejoin="miter">
	<path stroke='rgb(  0, 158, 115)'  d='M583.4,482.0 L625.6,482.0 M53.9,437.8 L59.6,431.6 L65.2,416.0 L70.9,413.8 L76.6,405.9 L82.2,398.6
		L87.9,397.8 L93.6,392.2 L99.2,387.3 L104.9,385.4 L110.6,384.1 L116.2,383.9 L121.9,383.8 L127.6,382.7
		L133.2,381.3 L138.9,381.2 L144.6,379.1 L150.3,374.2 L155.9,374.2 L161.6,373.6 L167.3,371.5 L172.9,370.7
		L178.6,369.7 L184.3,369.5 L189.9,369.0 L195.6,368.7 L201.3,368.3 L206.9,367.7 L212.6,367.7 L218.3,361.1
		L223.9,360.9 L229.6,359.8 L235.3,359.0 L240.9,358.7 L246.6,358.3 L252.3,357.2 L257.9,356.9 L263.6,356.6
		L269.3,356.5 L274.9,355.5 L280.6,355.2 L286.3,354.9 L291.9,354.1 L297.6,351.8 L303.3,349.5 L308.9,349.1
		L314.6,349.0 L320.3,348.5 L325.9,348.2 L331.6,348.2 L337.3,348.0 L343.0,347.9 L348.6,347.7 L354.3,347.4
		L360.0,347.4 L365.6,347.1 L371.3,346.1 L377.0,345.7 L382.6,345.2 L388.3,344.2 L394.0,343.3 L399.6,342.0
		L405.3,339.8 L411.0,339.5 L416.6,339.1 L422.3,339.0 L428.0,338.8 L433.6,335.4 L439.3,331.8 L445.0,331.3
		L450.6,329.9 L456.3,329.9 L462.0,329.7 L467.6,329.4 L473.3,329.1 L479.0,328.3 L484.6,328.0 L490.3,327.5
		L496.0,326.5 L501.6,323.8 L507.3,317.4 L513.0,316.4 L518.6,316.2 L524.3,312.4 L530.0,308.1 L535.7,307.7
		L541.3,305.1 L547.0,302.4 L552.7,298.8 L558.3,293.0 L564.0,292.3 L569.7,291.7 L575.3,290.8 L581.0,289.6
		L586.7,281.9 L592.3,276.4 L598.0,273.4 L603.7,271.1 L609.3,247.5 L615.0,191.4  '/></g>
	</g>
<g fill="none" color="#FFFFFF" stroke="rgb(  0, 158, 115)" stroke-width="2.00" stroke-linecap="butt" stroke-linejoin="miter">
</g>
<g fill="none" color="black" stroke="currentColor" stroke-width="2.00" stroke-linecap="butt" stroke-linejoin="miter">
</g>
<g fill="none" color="black" stroke="black" stroke-width="1.00" stroke-linecap="butt" stroke-linejoin="miter">
</g>
<g fill="none" color="black" stroke="currentColor" stroke-width="1.00" stroke-linecap="butt" stroke-linejoin="miter">
	<path stroke='black'  d='M53.9,18.1 L53.9,446.0 L615.0,446.0 L615.0,18.1 L53.9,18.1 Z  '/></g>
<g fill="none" color="black" stroke="currentColor" stroke-width="1.00" stroke-linecap="butt" stroke-linejoin="miter">
</g>
</g>
</svg>
